X:1
T:6 Lieder, Op.5
T:Auf eine Unbekannte
T:3. Auf ein Unbekannte
T:Peter Cornelius
T:Friedrich Hebbel
T:6 Lieder, Op.5
T:Creative Commons copyright waiver (CC0 1.0 Universal) 
T:Creative Commons copyright waiver (CC0 1.0 Universal) 
T:Creative Commons copyright waiver (CC0 1.0 Universal) 
T:Creative Commons copyright waiver (CC0 1.0 Universal) 
T:Creative Commons copyright waiver (CC0 1.0 Universal) 
C:Peter Cornelius
Z:Friedrich Hebbel
Z:Creative Commons copyright waiver (CC0 1.0 Universal)
Z:
L:1/8
M:4/4
K:A
V:1 treble nm="Voice" snm="Vo."
V:1
 z8 | z8 | z8 | z8 | z8 | z8 | z8 | z4 z2 z C | AA GF EC DE | E^D z2 z D DD | A>=G ^D2 z D EF | %11
w: |||||||Die|Dämm- e- rung war längst her- ein- ge-|bro- chen; ich hatt' dich|nie ge- sehn, du trast her-|
 ^G2 z2 z ^E FG | ^AA ^d^B A3 ^D | ^A2 G2 z G c>G | B3 =G CC B>^E | F2 z2 z4 | z2 =F4 _G^F | %17
w: an; da hat dein|Mund manch' mil- des Wort ge-|spro- chen, mit heil- gem|Ernst, der dir mein Herz ge-|wann.|Still, wie du|
 _A2 _E2 EE DE | _G2 =FF =G4- | G3 _E D=C DE | _A>=G =F2 z4 | z2 z _G _B4- | B2 _B2 _c3 B | %23
w: nah- test, hast du dich er-|ho- ben und sanft|* uns al- len gu- te|Nacht ge- sagt,|dein Bild|* war tief von|
 _A_E DE _G2 =F2 | z4 z =F F_B | _B2 A z =FF ED | A2 z2 z4 | z4 z F F=G | F2 E z cB =GF | %29
w: Fin- ster- nis um- wo- ben,|nach dei- nem|Na- men hab' ich nicht ge-|fragt.|Nun wird mein|Au ge nim- mer dich er-|
 A2 C z D2 EF | FF B2- BB cB | ^A6 z G | G^E EF ^AG c>^d | ^d2 c z z F FF | =d>c BB e3 d | %35
w: ken- nen, wenn du auch|einst vor- ü- * ber- gehst an|mir, und|hör' ich dich von frem- der Lip- pe|nen- nen, so sagt dein|Na- me selbst mir nichts von|
 c4 z c c=c | =cB =GE B3 A | A6 ^A2 | ^A^^F GB ^e^d BA | c2 ^E z ^F2 G^A | c2 B2 ^AA FG | %41
w: dir, so sagt dein|Na- me selbst mir nichts von|dir. Und|den- noch wirst du e- wig in mir|le- ben, gleich wie ein|Ton lebt in der stil- len|
 ^A4 z =F FF | =G_B, _EG =A3 =c | A2 _B2 z2 z B | _B=F Bd =f4- | f2 =c4 A=F | _d6 z2 | z8 | %48
w: Luft, und kann ich|Form nicht und Ge- stalt dir|ge- ben, so|reisst auch kei- ne Form|* dich in die|Gruft!||
 z4 z2 z C | AA GF EC ^DE | E2 ^D2 z2 FD | =c2 ^D2- DD EF | G>A G2 z2 z ^c | d>c B2 z2 z G | %54
w: Das|Le- ben hat ge- heim- nis vol- le|Stun- den, da tut,|selbst- herr- * schend, die Na-|tur sich kund; da|blu- ten wir und|
 AA GF c2 G z/ c/ | ^d>c B2 z2 z G | AA GF c2 z G | AA FA cB Gd | d2 c z z2 z F | G>G GG GA A2 | %60
w: füh- len kei- ne Wun- den, da|freu'n wir uns und|freu'n uns oh- ne Grund. Viel-|leicht wird dann zu flüch- tig- stem Ver-|ei- ne Ver|wand- tes dem Ver- wand- * tem|
 A>^A A2 z A B>c | B2 ^A z fe cA | e2 ^dG d3 =d | d2 c z FF ^EF | G2 z ^^G ^A3 A | %65
w: nah' ge- rückt, viel- leicht, ich|schau- dre, jauch- ze o- der|wei- ne, ist's dein E,-|pfin- den, wel- ches mich durch-|zückt, viel- leicht, ich|
 ^A2 ^D z ^e^d BA | c2 ^EE F3 G | ^A8- | A2 ^E z EE ^DC | F4 z4 | z8 | z8 | z8 | z8 | z8 |] %75
w: schau- dre, jauch- ze o- der|wei- ne, ist's dein Em-|pfin-|* den, wel- ches mich durch|zückt.||||||

